assets/align-right.svg

<svg xmlns="http://www.w3.org/2000/svg" fill="none" viewBox="0 0 18 10">
  <path fill="#2A2238" d="M17 .5h.5v1H17v-1Zm-16 1C.723858 1.5.5 1.27614.5 1 .5.723858.723858.5 1 .5v1Zm16 0H1v-1h16v1Zm0 3h.5v1H17v-1Zm-16 1C.723858 5.5.5 5.27614.5 5s.223858-.5.5-.5v1Zm16 0H1v-1h16v1Zm0 3h.5v1H17v-1Zm-16 1C.723858 9.5.5 9.27614.5 9s.223858-.5.5-.5v1Zm16 0H1v-1h16v1Zm0-7h.5v1H17v-1Zm-8 1c-.27614 0-.5-.22386-.5-.5s.22386-.5.5-.5v1Zm8 0H9v-1h8v1Zm0 3h.5v1H17v-1Zm-8 1c-.27614 0-.5-.22386-.5-.5s.22386-.5.5-.5v1Zm8 0H9v-1h8v1Z"/>
</svg>

<svg width="18" height="10" viewBox="0 0 18 10" fill="none" xmlns="http://www.w3.org/2000/svg">
<path d="M17 0.5H17.5V1.5H17V0.5ZM1 1.5C0.723858 1.5 0.5 1.27614 0.5 1C0.5 0.723858 0.723858 0.5 1 0.5V1.5ZM17 1.5H1V0.5H17V1.5Z" fill="#2A2238"/>
<path d="M17 4.5H17.5V5.5H17V4.5ZM1 5.5C0.723858 5.5 0.5 5.27614 0.5 5C0.5 4.72386 0.723858 4.5 1 4.5V5.5ZM17 5.5H1V4.5H17V5.5Z" fill="#2A2238"/>
<path d="M17 8.5H17.5V9.5H17V8.5ZM1 9.5C0.723858 9.5 0.5 9.27614 0.5 9C0.5 8.72386 0.723858 8.5 1 8.5V9.5ZM17 9.5H1V8.5H17V9.5Z" fill="#2A2238"/>
<path d="M17 2.5H17.5V3.5H17V2.5ZM9 3.5C8.72386 3.5 8.5 3.27614 8.5 3C8.5 2.72386 8.72386 2.5 9 2.5V3.5ZM17 3.5H9V2.5H17V3.5Z" fill="#2A2238"/>
<path d="M17 6.5H17.5V7.5H17V6.5ZM9 7.5C8.72386 7.5 8.5 7.27614 8.5 7C8.5 6.72386 8.72386 6.5 9 6.5V7.5ZM17 7.5H9V6.5H17V7.5Z" fill="#2A2238"/>
</svg>
